src/assets/images/icons/deliveryIcon.svg

<svg width="58" height="58" viewBox="0 0 58 58" fill="none" xmlns="http://www.w3.org/2000/svg">
<circle cx="29" cy="29" r="29" fill="url(#paint0_linear_1_4414)"/>
<path d="M41 37.4598V24.5402C40.999 24.3536 40.9512 24.1705 40.8612 24.0095C40.7712 23.8484 40.6423 23.7151 40.4875 23.623L29.4875 17.1369C29.3393 17.0472 29.1711 17 29 17C28.8289 17 28.6607 17.0472 28.5125 17.1369L17.5125 23.623C17.3577 23.7151 17.2288 23.8484 17.1388 24.0095C17.0488 24.1705 17.001 24.3536 17 24.5402V37.4598C17.001 37.6464 17.0488 37.8295 17.1388 37.9905C17.2288 38.1516 17.3577 38.2849 17.5125 38.377L28.5125 44.8631C28.6607 44.9528 28.8289 45 29 45C29.1711 45 29.3393 44.9528 29.4875 44.8631L40.4875 38.377C40.6423 38.2849 40.7712 38.1516 40.8612 37.9905C40.9512 37.8295 40.999 37.6464 41 37.4598V37.4598Z" stroke="#141414" stroke-width="1.5" stroke-linecap="round" stroke-linejoin="round"/>
<path d="M35 34V27.0995L23 20" stroke="#141414" stroke-width="1.5" stroke-linecap="round" stroke-linejoin="round"/>
<path d="M41 24L29.1138 31L17 24" stroke="#141414" stroke-width="1.5" stroke-linecap="round" stroke-linejoin="round"/>
<path d="M29 31V45" stroke="#141414" stroke-width="1.5" stroke-linecap="round" stroke-linejoin="round"/>
<defs>
<linearGradient id="paint0_linear_1_4414" x1="-1.64433" y1="12.5667" x2="71.3201" y2="17.7482" gradientUnits="userSpaceOnUse">
<stop stop-color="#FFB629"/>
<stop offset="0.507189" stop-color="#FFDA56"/>
<stop offset="1" stop-color="#FFD7A6"/>
</linearGradient>
</defs>
</svg>

<svg xmlns="http://www.w3.org/2000/svg" width="58" height="58" fill="none"><circle cx="29" cy="29" r="29" fill="url(#a)"/><path stroke="#141414" stroke-linecap="round" stroke-linejoin="round" stroke-width="1.5" d="M41 37.46V24.54a1.1 1.1 0 0 0-.139-.53 1.037 1.037 0 0 0-.373-.387l-11-6.486a.94.94 0 0 0-.976 0l-11 6.486a1.037 1.037 0 0 0-.373.386 1.1 1.1 0 0 0-.139.531v12.92a1.1 1.1 0 0 0 .139.53c.09.162.219.295.373.387l11 6.486a.94.94 0 0 0 .976 0l11-6.486c.154-.092.283-.225.373-.387a1.1 1.1 0 0 0 .139-.53v0Z"/><path stroke="#141414" stroke-linecap="round" stroke-linejoin="round" stroke-width="1.5" d="M35 34v-6.9L23 20"/><path stroke="#141414" stroke-linecap="round" stroke-linejoin="round" stroke-width="1.5" d="m41 24-11.886 7L17 24M29 31v14"/><defs><linearGradient id="a" x1="-1.644" x2="71.32" y1="12.567" y2="17.748" gradientUnits="userSpaceOnUse"><stop stop-color="#FFB629"/><stop offset=".507" stop-color="#FFDA56"/><stop offset="1" stop-color="#FFD7A6"/></linearGradient></defs></svg>
